!! 00049] TT[KA
!! NN
!!!OTL: Dao ban jiang
!!!ARE: Asia, China,ÿYunnan, Kunming
!! Ethnic Group: Han
!! II, 65
!!!SCT: C0207
!!!YEM: Copyright 1995, estate of Helmut Schaffrath.
**kern
*ICvox
*Ivox
*M2/4
*k[f#c#g#d#]
*E:
{8.b
16cc#
8c#
8e
=1
2f#
=2
8b
16b
16ee
8cc#
8g#
=3
2b}
=4
{8b
8f#
8b
8cc#
=5
8.f#
16e
8c#
8B
=6
4e
4e
=7
8.b
16f#
8b
8cc#
=8
8f#
4f#
8e
=9
4f#
4r}
=10
{4f#
8b
8cc#
=11
8b
8cc#
8g#
8f#
=12
8g#
16g#
16b
8g#
8f#
=13
2e}
=14
{8b
8f#
8b
8cc#
=15
8.f#
16g#
8f#
8e
=16
4.c#
8g#
=17
8.f#
16g#
8e
8c#
=18
4.B
8c#
=19
2B}
=20
{8b
4c#
8e
=21
2f#
=22
8b
16b
16ee
8cc#
16b
16g#
=23
2b}
=24
{8b
8f#
8b
8cc#
=25
8.f#
16e
8c#
8B
=26
4g#
8c#
8e}
=27
{4B
8B
8c#
=28
8b
8ee
8cc#
8g#
=29
2b}
=30
{8b
8f#
8b
8cc#
=31
8.f#
16g#
8c#
8B
=32
2e
=33
8.b
16f#
8g#
8b
=34
8f#
4f#
8e
=35
2f#}
=36
{8b
8c#
8c#
8f#
=37
8c#
8e
8B
8c#
=38
4.e
8f#
=39
2e}
=40
{8c#
4c#
8e
=41
8c#
8e
8B
8c#
=42
4.e
8f#
=43
2e}
=44
{4g#
8b
8dd#
=45
4cc#
8b
8f#
=46
8g#
8a
8g#
8f#
=47
4e
4r}
=48
{8.e
16c#
8g#
8b
=49
8.f#
16g#
8f#
8e
=50
4.c#
8g#
=51
8.f#
16g#
8e
8c#
=52
4.B
8c#
=53
2B}
==
!!!AGN: Wuge, Huadeng, Kunming huadeng. Chang huahui
!! Vorspiel weggelassen., QING YUE) B ZHI
!!!ONB: ESAC (Essen Associative Code) Database: CHINA
!!!AMT: simple duple
!!!AIN: vox
!!!EED: Helmut Schaffrath
!!!EEV: 1.0
*-
